X:99
T:Philomela
M:4/4
L:1/4
Q:80
C:Trad. arr. J.T.
S:Ifor Ceri manuscript c. 1820
R:Slow air
N:Slightly compressed
K:G
G>F E F | G F E>E | E B B A | G A B2 | B>B A A | G
G F2 | E F G E | D c B2 | E>F G G | F B A2 | G E
D E | F G E2 ||
